X: 1
T: Haley's
R: jig
M: 6/8
L: 1/8
K: Edor
|:EB,E GEG|BGB e2f|gfe dBG|
FAG FED|EB,E GEG|BGB e2f|
gfe dBA|1 GEE E2F:|2 GEE E2f||
|:g3 gfe|dBG G2f|gfe dBG|FAG FED|
[1 g3 gfe|dBG G2f|gfe dBA|GEE E2f:|
[2 EB,E GEG|BGB e2f|gfe dBA|GEE E2F||

